X: 147
T:Joanie's Jig
% Nottingham Music Database
S:Bob McQuillen, via Phil Rowe
M:6/8
K:D
DE|"D"FGF "A"EFE|"D"DA,A, DFG|"D"AFA "G"dcB|"D"A3 -AFA|
"G"BGB "D"AFA|"A"GEG "D"FGA|"Em"B2A G2F|"E7"FED "A7"EDE|
"D"FGF "A"EFE|"D"DA,A, DFG|"D"AFA "G"dcd|"A"e3 -ede|
"Bm"fdd "A"e2c|"G"dcB "D"AFA|"G"Bcd "A7"edc|"D"d3 -dde||
"D"fdd edd|"D"fdd "A"efe|"D"dcd "G"Bcd|"D"A3 -AFA|"G"Bdd "D"Add|
"Em"GAB "D"AFA|"G"BGB "D"AFD|"Em"E3 -"A7"E2A|"D"fdd edd|"D"fdd "A"efe|
"D"dcd "G"Bcd|"D7"A3 -AFA|"G"BGB "A"c2c|"Bm"dcd "A"e2g|"D"fed "A7"edc|\
"D"d3 -d3||


